X: 42157
T: Water Of Tyne, The
R: waltz
M: 3/4
K: Dmajor
|:A2|A2 F2 F2|A2 F2 E2|D2 D3 D|D4 EF|
G2 G2 F2|E2 F2 A2|B2 B3 B|A4 FE|
D2 d2 d2|d3 e f2|d2 A2 B2|B3 c d2|
A2 F2 F2|A2 F2 E2|D2 D3 D|D4:|

